!! 00000] TT[WS
!!!OTL: Zhuan Shantou
!!!ARE: Asia, China, Shanxi Hequ
!! Ethnic Group: Han
!! WI, 269 (2)
!!!SCT: J0320
!!!YEM: Copyright 1995, estate of Helmut Schaffrath.
**kern
*ICvox
*Ivox
*M2/4
*k[f#c#g#]
*A:
{8cc#
8ff#
8ee
8cc#
=1
8ee
8cc#
4b
=2
16cc#
16ee
8g#
8f#
8a
=3
2b}
=4
{8cc#
8ff#
8ee
8cc#
=5
16cc#
16ee
4.g#
=6
8f#
16b
16b
8g#
8f#
=7
2e}
=8
{8f#
16e
16g#
8f#
8e
=9
4f#
8.cc#
16b
=10
8a
8f#
8e
8c#
=11
2B}
=12
{8.cc#
16ff#
8.ee
16cc#
=13
8ee
8cc#
8b
16b
16cc#
=14
8e
8c#
8e
8f#
=15
2cc#
=16
8a
16f#
16f#
8e
8c#
=17
2b}
==
!!!AGN: Xiaodiao. XÅshi, Aisu
!!!ONB: ESAC (Essen Associative Code) Database: CHINA
!!!AMT: simple duple
!!!AIN: vox
!!!EED: Helmut Schaffrath
!!!EEV: 1.0
*-
